X: 565
T: Gege de ku
L: 1/8
M: 2/4
K: Bb
d'2d' f' [I:setbarnb 1]| 
b2c' d' | 
c' b g f | 
d4 | 
d'2d' f' | 
b2c' d' | 
c' bg2 | 
f4 |]

@@@ Tune index: 9439
